TH1/tut3_twoscales.svg

<svg xmlns="http://www.w3.org/2000/svg" viewBox="0 0 1200 800" preserveAspectRatio="none" width="1200" height="800">
 <path d="M0,0H1200V800H0Z" style="fill: white;"></path>
 <g>
  <g transform="translate(120,80)">
   <path d="M0,0H960V640H0Z" style="fill: white; stroke: black; stroke-width: 1;"></path>
   <svg x="0" y="0" overflow="hidden" width="960" height="640" viewBox="0 0 960 640">
    <g>
     <path d="M0,635h10v-2h9v5h10v-10h19v-4h10v-12h9v19h10v-14h9v-12h10v10h10v4h9v-14h10v-35h9v10h10v-14h10v-5h9v-16h10v35h9v-33h10v-25h10v-12h9v-11h10v-26h9v-25h10v23h10v-60h9v37h10v-75h9v35h10v-28h10v-37h9v-14h10v-11h9v-37h10v-12h10v-72h9v7h10v21h9v-32h10v-3h10v-23h9v-55h10v-21h9v-16h10v97h10v-67h9v14h10v-49h9v5h10v-21h10v-24h9v116h10v-44h9v-14h10v19h10v51h9v-21h10v9h9v33h10v18h19v26h19v-14h10v39h10v63h9v2h10v19h9v62h10v-92h10v92h9v35h10v16h9v12h10v42h10v-7h9v27h10v5h9v42h10v-51h10v39h9v16h10v-23h9v30h10v-4h10v28h9v-17h19v17h10v18h10v-2h9v-5h10v-2h9v21h10v4h10v-7h9v3h10v2h9v-2h10" style="stroke-linejoin: miter; stroke: #00009a; stroke-width: 1; fill: none;"></path>
    </g>
    <g>
     <path d="M0,640h10M5,640v0M10,640h10M15,640v0M19,640h10M24,640v0M29,639h10M34,639v1M38,639h10M43,639v0M48,639h10M53,638v1M58,638h10M63,638v0M67,638h10M72,637v1M77,637h10M82,637v1M86,636h10M91,636v1M96,636h10M101,635v1M106,635h10M111,635v1M115,634h10M120,634v1M125,632h10M130,632v1M134,631h10M139,630v2M144,629h10M149,628v2M154,627h10M159,626v2M163,625h10M168,624v2M173,623h10M178,622v2M182,621h10M187,620v2M192,618h10M197,617v2M202,615h10M207,613v3M211,611h10M216,610v2M221,607h10M226,605v3M230,602h10M235,601v2M240,598h10M245,596v3M250,592h10M255,590v4M259,587h10M264,585v4M269,580h10M274,579v3M278,575h10M283,573v4M288,568h10M293,566v4M298,561h10M303,558v5M307,553h10M312,551v4M317,545h10M322,542v5M326,536h10M331,533v5M336,526h10M341,524v5M346,515h10M351,512v6M355,504h10M360,501v6M365,494h10M370,491v6M374,482h10M379,479v6M384,471h10M389,468v6M394,459h10M399,456v6M403,446h10M408,443v6M413,432h10M418,429v7M422,418h10M427,414v7M432,406h10M437,402v8M442,393h10M447,389v7M451,379h10M456,376v7M461,365h10M466,361v8M470,351h10M475,347v8M480,336h10M485,332v8M490,321h10M495,316v9M499,308h10M504,304v9M509,295h10M514,290v9M518,281h10M523,276v9M528,267h10M533,263v9M538,255h10M543,251v9M547,243h10M552,238v9M557,230h10M562,225v10M566,219h10M571,214v10M576,207h10M581,202v10M586,196h10M591,191v10M595,186h10M600,181v10M605,175h10M610,170v11M614,164h10M619,159v11M624,155h10M629,149v11M634,146h10M639,141v11M643,138h10M648,133v10M653,130h10M658,125v11M662,124h10M667,119v11M672,116h10M677,110v11M682,109h10M687,104v11M691,104h10M696,99v11M701,99h10M706,94v11M710,95h10M715,89v11M720,91h10M725,85v12M730,87h10M735,82v11M739,84h10M744,79v11M749,81h10M754,76v11M758,79h10M763,74v11M768,76h10M773,71v11M778,74h10M783,68v12M787,72h10M792,67v11M797,70h10M802,64v12M806,69h10M811,63v11M816,67h10M821,61v12M826,66h10M831,60v12M835,64h10M840,59v11M845,63h10M850,57v12M854,62h10M859,56v12M864,62h10M869,56v11M874,61h10M879,55v12M883,60h10M888,54v12M893,59h10M898,54v11M902,59h10M907,53v12M912,59h10M917,53v12M922,59h10M927,53v12M931,59h10M936,53v11M941,58h10M946,53v11M950,58h10M955,52v12" style="stroke: #ff0000; stroke-width: 1;"></path>
    </g>
   </svg>
   <g>
    <g transform="translate(0,640)">
     <path d="M0,0h960M0,-24v24m32,-12v12m32,-12v12m32,-12v12m32,-12v12m32,-24v24m32,-12v12m32,-12v12m32,-12v12m32,-12v12m32,-24v24m32,-12v12m32,-12v12m32,-12v12m32,-12v12m32,-24v24m32,-12v12m32,-12v12m32,-12v12m32,-12v12m32,-24v24m32,-12v12m32,-12v12m32,-12v12m32,-12v12m32,-24v24m32,-12v12m32,-12v12m32,-12v12m32,-12v12m32,-24v24" style="stroke: black; stroke-width: 1;"></path>
     <g font-family="Arial" font-size="28" space="preserve" fill="black" text-anchor="middle">
      <text dy=".8em" transform="translate(0,6)">
       -3
      </text>
      <text dy=".8em" transform="translate(160,6)">
       -2
      </text>
      <text dy=".8em" transform="translate(320,6)">
       -1
      </text>
      <text dy=".8em" transform="translate(480,6)">
       0
      </text>
      <text dy=".8em" transform="translate(640,6)">
       1
      </text>
      <text dy=".8em" transform="translate(800,6)">
       2
      </text>
      <text dy=".8em" transform="translate(960,6)">
       3
      </text>
     </g>
    </g>
    <g>
     <path d="M0,0v640M36,640h-36m18,-23h-18m18,-23h-18m18,-24h-18m18,-23h-18m36,-23h-36m18,-23h-18m18,-23h-18m18,-23h-18m18,-24h-18m36,-23h-36m18,-23h-18m18,-23h-18m18,-23h-18m18,-23h-18m36,-24h-36m18,-23h-18m18,-23h-18m18,-23h-18m18,-23h-18m36,-24h-36m18,-23h-18m18,-23h-18m18,-23h-18m18,-23h-18m36,-23h-36m18,-24h-18m18,-23h-18" style="stroke: black; stroke-width: 1;"></path>
     <g font-family="Arial" font-size="28" space="preserve" fill="black" text-anchor="end">
      <text dy=".4em" transform="translate(-4,640)">
       0
      </text>
      <text dy=".4em" transform="translate(-4,524)">
       50
      </text>
      <text dy=".4em" transform="translate(-4,408)">
       100
      </text>
      <text dy=".4em" transform="translate(-4,292)">
       150
      </text>
      <text dy=".4em" transform="translate(-4,176)">
       200
      </text>
      <text dy=".4em" transform="translate(-4,61)">
       250
      </text>
     </g>
    </g>
   </g>
  </g>
  <g transform="translate(464,4)" font-family="Arial" font-size="37" space="preserve">
   <text fill="black" text-anchor="middle" dy=".4em" transform="translate(137,25)">
    my histogram
   </text>
  </g>
  <g transform="translate(1080,80)">
   <path d="M0,0v640M0,640h-33m33,-12h-17m17,-11h-17m17,-12h-17m17,-12h-17m17,-11h-33m33,-12h-17m17,-12h-17m17,-11h-17m17,-12h-17m17,-12h-33m33,-11h-17m17,-12h-17m17,-12h-17m17,-11h-17m17,-12h-33m33,-12h-17m17,-11h-17m17,-12h-17m17,-12h-17m17,-11h-33m33,-12h-17m17,-12h-17m17,-11h-17m17,-12h-17m17,-12h-33m33,-11h-17m17,-12h-17m17,-12h-17m17,-11h-17m17,-12h-33m33,-12h-17m17,-11h-17m17,-12h-17m17,-12h-17m17,-11h-33m33,-12h-17m17,-12h-17m17,-12h-17m17,-11h-17m17,-12h-33m33,-12h-17m17,-11h-17m17,-12h-17m17,-12h-17m17,-11h-33m33,-12h-17m17,-12h-17m17,-11h-17m17,-12h-17m17,-12h-33m33,-11h-17m17,-12h-17m17,-12h-17m17,-11h-17" style="stroke: #ff0000; stroke-width: 1;"></path>
   <g font-family="Arial" font-size="32" space="preserve" font-weight="bold" fill="#ff0000" text-anchor="start">
    <text dy=".4em" transform="translate(4,640)">
     0
    </text>
    <text dy=".4em" transform="translate(4,582)">
     1000
    </text>
    <text dy=".4em" transform="translate(4,523)">
     2000
    </text>
    <text dy=".4em" transform="translate(4,465)">
     3000
    </text>
    <text dy=".4em" transform="translate(4,407)">
     4000
    </text>
    <text dy=".4em" transform="translate(4,348)">
     5000
    </text>
    <text dy=".4em" transform="translate(4,290)">
     6000
    </text>
    <text dy=".4em" transform="translate(4,232)">
     7000
    </text>
    <text dy=".4em" transform="translate(4,173)">
     8000
    </text>
    <text dy=".4em" transform="translate(4,115)">
     9000
    </text>
    <text dy=".4em" transform="translate(4,56)">
     10000
    </text>
   </g>
  </g>
 </g>
</svg>

<svg xmlns="http://www.w3.org/2000/svg" viewBox="0 0 1200 800" preserveAspectRatio="none" width="1200" height="800">
 <path d="M0,0H1200V800H0Z" style="fill: white;"></path>
 <g>
  <g transform="translate(120,80)">
   <path d="M0,0H960V640H0Z" style="fill: white; stroke: black; stroke-width: 1;"></path>
   <svg x="0" y="0" overflow="hidden" width="960" height="640" viewBox="0 0 960 640">
    <g>
     <path d="M0,635h10v-2h9v5h10v-10h19v-4h10v-12h9v19h10v-14h9v-12h10v10h10v4h9v-14h10v-35h9v10h10v-14h10v-5h9v-16h10v35h9v-33h10v-25h10v-12h9v-11h10v-26h9v-25h10v23h10v-60h9v37h10v-75h9v35h10v-28h10v-37h9v-14h10v-11h9v-37h10v-12h10v-72h9v7h10v21h9v-32h10v-3h10v-23h9v-55h10v-21h9v-16h10v97h10v-67h9v14h10v-49h9v5h10v-21h10v-24h9v116h10v-44h9v-14h10v19h10v51h9v-21h10v9h9v33h10v18h19v26h19v-14h10v39h10v63h9v2h10v19h9v62h10v-92h10v92h9v35h10v16h9v12h10v42h10v-7h9v27h10v5h9v42h10v-51h10v39h9v16h10v-23h9v30h10v-4h10v28h9v-17h19v17h10v18h10v-2h9v-5h10v-2h9v21h10v4h10v-7h9v3h10v2h9v-2h10" style="stroke-linejoin: miter; stroke: #00009a; stroke-width: 1; fill: none;"></path>
    </g>
    <g>
     <path d="M0,640h10M5,640v0M10,640h10M15,640v0M19,640h10M24,640v0M29,639h10M34,639v1M38,639h10M43,639v0M48,639h10M53,638v1M58,638h10M63,638v0M67,638h10M72,637v1M77,637h10M82,637v1M86,636h10M91,636v1M96,636h10M101,635v1M106,635h10M111,635v1M115,634h10M120,634v1M125,632h10M130,632v1M134,631h10M139,630v2M144,629h10M149,628v2M154,627h10M159,626v2M163,625h10M168,624v2M173,623h10M178,622v2M182,621h10M187,620v2M192,618h10M197,617v2M202,615h10M207,613v3M211,611h10M216,610v2M221,607h10M226,605v3M230,602h10M235,601v2M240,598h10M245,596v3M250,592h10M255,590v4M259,587h10M264,585v4M269,580h10M274,579v3M278,575h10M283,573v4M288,568h10M293,566v4M298,561h10M303,558v5M307,553h10M312,551v4M317,545h10M322,542v5M326,536h10M331,533v5M336,526h10M341,524v5M346,515h10M351,512v6M355,504h10M360,501v6M365,494h10M370,491v6M374,482h10M379,479v6M384,471h10M389,468v6M394,459h10M399,456v6M403,446h10M408,443v6M413,432h10M418,429v7M422,418h10M427,414v7M432,406h10M437,402v8M442,393h10M447,389v7M451,379h10M456,376v7M461,365h10M466,361v8M470,351h10M475,347v8M480,336h10M485,332v8M490,321h10M495,316v9M499,308h10M504,304v9M509,295h10M514,290v9M518,281h10M523,276v9M528,267h10M533,263v9M538,255h10M543,251v9M547,243h10M552,238v9M557,230h10M562,225v10M566,219h10M571,214v10M576,207h10M581,202v10M586,196h10M591,191v10M595,186h10M600,181v10M605,175h10M610,170v11M614,164h10M619,159v11M624,155h10M629,149v11M634,146h10M639,141v11M643,138h10M648,133v10M653,130h10M658,125v11M662,124h10M667,119v11M672,116h10M677,110v11M682,109h10M687,104v11M691,104h10M696,99v11M701,99h10M706,94v11M710,95h10M715,89v11M720,91h10M725,85v12M730,87h10M735,82v11M739,84h10M744,79v11M749,81h10M754,76v11M758,79h10M763,74v11M768,76h10M773,71v11M778,74h10M783,68v12M787,72h10M792,67v11M797,70h10M802,64v12M806,69h10M811,63v11M816,67h10M821,61v12M826,66h10M831,60v12M835,64h10M840,59v11M845,63h10M850,57v12M854,62h10M859,56v12M864,62h10M869,56v11M874,61h10M879,55v12M883,60h10M888,54v12M893,59h10M898,54v11M902,59h10M907,53v12M912,59h10M917,53v12M922,59h10M927,53v12M931,59h10M936,53v11M941,58h10M946,53v11M950,58h10M955,52v12" style="stroke: #ff0000; stroke-width: 1;"></path>
    </g>
   </svg>
   <g>
    <g transform="translate(0,640)">
     <path d="M0,0h960M0,-24V0M32,-12V0M64,-12V0M96,-12V0M128,-12V0M160,-24V0M192,-12V0M224,-12V0M256,-12V0M288,-12V0M320,-24V0M352,-12V0M384,-12V0M416,-12V0M448,-12V0M480,-24V0M512,-12V0M544,-12V0M576,-12V0M608,-12V0M640,-24V0M672,-12V0M704,-12V0M736,-12V0M768,-12V0M800,-24V0M832,-12V0M864,-12V0M896,-12V0M928,-12V0M960,-24V0" style="stroke: black; stroke-width: 1;"></path>
     <g font-family="Arial" font-size="28" space="preserve" fill="black" text-anchor="middle">
      <text dy=".8em" transform="translate(0,6)">
       -3
      </text>
      <text dy=".8em" transform="translate(160,6)">
       -2
      </text>
      <text dy=".8em" transform="translate(320,6)">
       -1
      </text>
      <text dy=".8em" transform="translate(480,6)">
       0
      </text>
      <text dy=".8em" transform="translate(640,6)">
       1
      </text>
      <text dy=".8em" transform="translate(800,6)">
       2
      </text>
      <text dy=".8em" transform="translate(960,6)">
       3
      </text>
     </g>
    </g>
    <g>
     <path d="M0,0v640M36,640H0M18,617H0M18,594H0M18,570H0M18,547H0M36,524H0M18,501H0M18,478H0M18,455H0M18,431H0M36,408H0M18,385H0M18,362H0M18,339H0M18,316H0M36,292H0M18,269H0M18,246H0M18,223H0M18,200H0M36,176H0M18,153H0M18,130H0M18,107H0M18,84H0M36,61H0M18,37H0M18,14H0" style="stroke: black; stroke-width: 1;"></path>
     <g font-family="Arial" font-size="28" space="preserve" fill="black" text-anchor="end">
      <text dy=".4em" transform="translate(-4,640)">
       0
      </text>
      <text dy=".4em" transform="translate(-4,524)">
       50
      </text>
      <text dy=".4em" transform="translate(-4,408)">
       100
      </text>
      <text dy=".4em" transform="translate(-4,292)">
       150
      </text>
      <text dy=".4em" transform="translate(-4,176)">
       200
      </text>
      <text dy=".4em" transform="translate(-4,61)">
       250
      </text>
     </g>
    </g>
   </g>
  </g>
  <g transform="translate(464,4)" font-family="Arial" font-size="37" space="preserve">
   <text fill="black" text-anchor="middle" dy=".4em" transform="translate(137,25)">
    my histogram
   </text>
  </g>
  <g transform="translate(1080,80)">
   <path d="M0,0v640M0,640H-33M0,628H-17M0,617H-17M0,605H-17M0,593H-17M0,582H-33M0,570H-17M0,558H-17M0,547H-17M0,535H-17M0,523H-33M0,512H-17M0,500H-17M0,488H-17M0,477H-17M0,465H-33M0,453H-17M0,442H-17M0,430H-17M0,418H-17M0,407H-33M0,395H-17M0,383H-17M0,372H-17M0,360H-17M0,348H-33M0,337H-17M0,325H-17M0,313H-17M0,302H-17M0,290H-33M0,278H-17M0,267H-17M0,255H-17M0,243H-17M0,232H-33M0,220H-17M0,208H-17M0,196H-17M0,185H-17M0,173H-33M0,161H-17M0,150H-17M0,138H-17M0,126H-17M0,115H-33M0,103H-17M0,91H-17M0,80H-17M0,68H-17M0,56H-33M0,45H-17M0,33H-17M0,21H-17M0,10H-17" style="stroke: #ff0000; stroke-width: 1;"></path>
   <g font-family="Arial" font-size="32" space="preserve" font-weight="bold" fill="#ff0000" text-anchor="start">
    <text dy=".4em" transform="translate(4,640)">
     0
    </text>
    <text dy=".4em" transform="translate(4,582)">
     1000
    </text>
    <text dy=".4em" transform="translate(4,523)">
     2000
    </text>
    <text dy=".4em" transform="translate(4,465)">
     3000
    </text>
    <text dy=".4em" transform="translate(4,407)">
     4000
    </text>
    <text dy=".4em" transform="translate(4,348)">
     5000
    </text>
    <text dy=".4em" transform="translate(4,290)">
     6000
    </text>
    <text dy=".4em" transform="translate(4,232)">
     7000
    </text>
    <text dy=".4em" transform="translate(4,173)">
     8000
    </text>
    <text dy=".4em" transform="translate(4,115)">
     9000
    </text>
    <text dy=".4em" transform="translate(4,56)">
     10000
    </text>
   </g>
  </g>
 </g>
</svg>
